**kern	**kern	**dynam
*part1	*part1	*part1
*staff2	*staff1	*
*I"Piano	*	*
*clefF4	*clefG2	*
*k[b-e-a-d-]	*k[b-e-a-d-]	*
=1	=1	=1
4C 4G 4c	4en 4b-X 4cc	.
4r	4r	.
8C; 8c	8e; 8b- 8cc 8een	.
8r	8r	.
=	=	=
2.F 2.c	(8a-L	.
.	8cc	.
.	8ff	.
.	8aa-	.
.	8gg	.
.	8ffJ)	.
=	=	=
*^	*	*
!	!	!	!LO:DY:a
8B-L	[2.F	2.g 2.b- 2.een	<
8c	.	.	.
8.d-^	.	.	[
32e-XLL	.	.	.
32d-JJ	.	.	.
8c	.	.	.
8B-J	.	.	.
*v	*v	*	*
=	=	=
2.F] 2.c	(8a-L	.
.	8cc	.
.	8ff	.
.	8aa-	.
.	8gg	.
.	8ffJ)	.
=	=	=
*^	*	*
!	!	!	!LO:DY:a
8B-L	[2.F	2.g 2.b- 2.een	<
8c	.	.	.
8.d-^	.	.	[
32e-XLL	.	.	.
32d-JJ	.	.	.
8c	.	.	.
8B-J	.	.	.
*v	*v	*	*
=	=	=
!	!	!LO:DY:a
8FL] 8c	8r	<
(8G	8fL 8a- 8cc 8ff	.
8A-	8r	.
8F	8f 8a- 8cc 8ff	.
8B-	8r	.
8d-J)	8fJ 8b- 8ff	[[
=	=	=
2.F; 2.c	2.f; 2.a- 2.ff	f
=:|!	=:|!	=:|!
*-	*-	*-
!!!system-decoration: {(s1,s2)}
